X:1
T:Title
%%score { ( 1 3 ) | ( 2 4 ) }
L:1/8
M:6/8
K:G
V:1 treble nm="Grand Piano"
V:3 treble 
V:2 bass 
V:4 bass 
V:1
 z3 z2[Q:1/4=95] D | D2 G G2 A | G F2- F2 E | D2 c c2 [Fc] |[M:5/8] B-B- B3 |[M:1/8] D | %6
[M:3/4] D2 G G2 A | GF- F3 E | D2 c B2 A | G6 | [CA]4 z2 | d3 G z2 | A2 B ^c2 d | %13
[M:7/8] e2 z [Fd]- [Fd]3 |[M:3/4] d2 BB AG | [FA]2 [GB] [FA]3 | [Ac]2 [FA]A GF | G2 A B2 B | %18
 d2 BG A[DGB] | z e- e4 | z d- d4 |[M:11/16] [DGB] z DDD3/2 |] %22
V:2
 z3 z2 [G,B,] | [G,B,]2 [G,B,D] [A,CD]2 [F,CD] | [D,B,D] [D,A,D]2- [D,A,D]2 [D,G,D] | %3
 [D,F,]2 [F,A,D][K:treble] [A,DF]2 [D,D] |[M:5/8] [G,DG]-[G,DG]- [G,DG]3 |[M:1/8][K:bass] [G,B,] | %6
[M:3/4] [G,B,]2 [G,B,D] [A,CD]2 [F,CD] | [D,B,D][D,A,D]- [D,A,D]3 [D,G,D] | %8
 [D,F,]2 [F,A,D] [G,D]2 [D,CD] | [G,B,D]6 | z2 z A,3 | .[G,D]2 z2 z2[K:treble] | %12
 [A,DF]2 [A,^CG] [A,EG]2 [A,DF] |[M:7/8] [A,^C] z[K:bass] z z z z2 |[M:3/4][K:treble] z2 z D z2 | %15
 [D,D]2 [D,D] [D,D]3 | z2 z C z2 | [G,B,D]2 [G,CD] [G,DG]2 [G,DG] | %18
 [G,B,G]2[K:bass] [G,D][G,D]- [G,CD]G, | z C- C4 | z A,- A,4 |[M:11/16] G,D,B,,G,,G,,3/2 |] %22
V:3
 x6 | x6 | x6 | x6 |[M:5/8] x5 |[M:1/8] x |[M:3/4] x6 | x6 | x6 | x6 | FF FD D2 | %11
 z G G[DB]- [DGB]B | x6 |[M:7/8] z ^C[E^c] z A,3 |[M:3/4] x6 | x6 | x6 | x6 | x6 | [EGc]G GG G2 | %20
 [CFA]F FF A2 |[M:11/16] z [B,G]/-[B,G]/-[B,G]/-[B,G]/-[B,G]/-[B,G]-<[B,G] |] %22
V:4
 x6 | x6 | x6 | x3[K:treble] x3 |[M:5/8] x5 |[M:1/8][K:bass] x |[M:3/4] x6 | x6 | x6 | x6 | %10
 D,D, D,F, F,2 | B,-[G,B,-] [G,B,]G, G,[K:treble][G,DG] | x6 | %13
[M:7/8] G-[A,G][K:bass]A, [D,A,] D,3 |[M:3/4][K:treble] [G,B,G]2 [G,DG][G,G]- [G,CG][G,B,] | x6 | %16
 [D,D]2 [D,C][D,D]- [D,B,D][D,A,D] | x6 | z2[K:bass] z B, z2 | C,C, C,C, C,2 | D,D, D,D, F,2 | %21
[M:11/16] x11/2 |] %22

